!!!COM: Haydn, Franz Joseph
!!!OPR: String Quartet in B-flat Major
!!!ONM: Opus 76, No. 4
!!!OTL: Affettuoso 
!!!OMV: 1
!!!SCT: H III:78
!!!SCA: Thematisch-bibliographisches Werkevererzeichnis (A. van Hoboken)
!!!YOR: Trautwein Edition
!!!EED: Frances Bennion
!!!ENC: Frances Bennion
!!!CDT: 1732/3/31/-1809/5/31/
!!!OCY: Österreich
!!!YEC: Copyright (c) 1994, 2000 Center for Computer Assisted Research in the Humanities
!!!YEM: Rights to all derivative editions reserved.
!!!YEM: Refer to licensing agreement for further details.
!!!YEN: United States of America
**kern	**kern	**kern	**kern
*k[b-e-]	*k[b-e-]	*k[b-e-]	*k[b-e-]
*B-:	*B-:	*B-:	*B-:
*clefF	*clefF	*clefC3	*clefF4
*M4/4	*M4/4	*M4/4	*M4/4
*tb16	*tb16	*tb16	*tb16
=1	=1	=1	=1
2.r	[1d	[1F	[1BB-
4e	.	.	.
=2	=2	=2	=2
4.f	1d_	1F_	1BB-_
8a	.	.	.
8b-	.	.	.
8a	.	.	.
8b-	.	.	.
8dd	.	.	.
=3	=3	=3	=3
4.ff	1d_	1F_	1BB-_
8a	.	.	.
8b-	.	.	.
8dd	.	.	.
8ff	.	.	.
8aa	.	.	.
=4	=4	=4	=4
4.bb-	1d]	1F]	1BB-]
8aa	.	.	.
8gg	.	.	.
8ff	.	.	.
8ee-	.	.	.
8dd	.	.	.
=5	=5	=5	=5
4cc	4g	4c	4E-
4r	4r	4r	4r
4dd	4b	4G 4f	4D
4r	4r	4r	4r
=6	=6	=6	=6
4ee-	4cc	4G 4e-	4C
2.r	2.r	2.r	2.r
=7	=7	=7	=7
2.r	[1e-	[1A	[1FF
4B	.	.	.
=8	=8	=8	=8
4.c	1e-_	1A_	1FF_
8d	.	.	.
8e-	.	.	.
8f	.	.	.
8a	.	.	.
8cc	.	.	.
=9	=9	=9	=9
4.ee-	1e-_	1A_	1FF_
8b	.	.	.
8cc	.	.	.
8dd	.	.	.
8ee-	.	.	.
8ff#	.	.	.
=10	=10	=10	=10
4.gg	1e-]	1A]	1FF]
8ff	.	.	.
8ee-	.	.	.
8dd	.	.	.
8ee-	.	.	.
8cc	.	.	.
=11	=11	=11	=11
4b-	4d	4B-	4GG
4r	4r	4r	4r
4cc	4a	4e-	4FF
4r	4r	4r	4r
=12	=12	=12	=12
4dd	4b-	4d	4BB-
2.r	2.r	2.r	2.r
=13	=13	=13	=13
2.ff	[1b-	4.r	2.d
.	.	8e	.
.	.	8f	.
.	.	8b-	.
4ee	.	8g	4c#
.	.	8b-	.
=14	=14	=14	=14
2.ff	1b-_	4.f	2.d
.	.	8e	.
.	.	8f	.
.	.	8b-	.
4ee	.	8g	4c#
.	.	8b-	.
=15	=15	=15	=15
2.ff	1b-_	4.f	2.d
.	.	8e	.
.	.	8f	.
.	.	8b-	.
4ff#	.	8a-	4D
.	.	8b-	.
=16	=16	=16	=16
4.gg	2b-]	2g	1E-
8ff#	.	.	.
8gg	2d-	[2B-	.
8ff#	.	.	.
8gg	.	.	.
8bb-	.	.	.
=17	=17	=17	=17
4.ff	2d	2B-]	1F
8dd	.	.	.
8ee-	8c	4.A	.
8dd	8B	.	.
8ee-	8c	.	.
8a	8e-	8c	.
=18	=18	=18	=18
4.b-	[1d	1B-	1G
8a	.	.	.
8b-	.	.	.
8a	.	.	.
8b-	.	.	.
8dd	.	.	.
=19	=19	=19	=19
4.b-	1d]	1A-	1F
8a	.	.	.
8b-	.	.	.
8a	.	.	.
8b-	.	.	.
8dd	.	.	.
=20	=20	=20	=20
4.b-	1d-	1G	2E-
8a	.	.	.
8b-	.	.	2E
8a	.	.	.
8b-	.	.	.
8gg	.	.	.
=21	=21	=21	=21
4.ff	2d	2B-	1F
8dd	.	.	.
8ee-	8c	4.A	.
8dd	8B	.	.
8ee-	8c	.	.
8a	8e-	8c	.
=22	=22	=22	=22
16b-	8d	8B-	4BB-
16a	.	.	.
16b-	8r	8r	.
16dd	.	.	.
16f	8d	8B-	4r
16g	.	.	.
16e-	8e-	8c	.
16f	.	.	.
16d	8f	8d	4BB-
16b-	.	.	.
16a	8r	8r	.
16b-	.	.	.
16f	8d	8B-	4r
16g	.	.	.
16e-	8e-	8c	.
16f	.	.	.
=23	=23	=23	=23
16d	8f	8d	8BB-
16b-	.	.	.
16a	8r	8r	8r
16b-	.	.	.
16f	8f	8d	8BB-
16dd	.	.	.
16cc#	8r	8r	8r
16dd	.	.	.
16b-	8f	8d	8BB-
16ff	.	.	.
16gg	8r	8r	8r
16ff	.	.	.
16ee-	8f	8d	8BB-
16dd	.	.	.
16cc	8r	8r	8r
16b-	.	.	.
=24	=24	=24	=24
16a	8a 8e-	8c	4BB-
16ee-	.	.	.
16dd	8r	8r	.
16ee-	.	.	.
16cc	8c	8A	4r
16dd	.	.	.
16b-	8d	8B-	.
16cc	.	.	.
16a	8e-	8c	4BB-
16e-	.	.	.
16d	8r	8r	.
16e-	.	.	.
16c	8c	8A	4r
16e-	.	.	.
16B-	8d	8B-	.
16e-	.	.	.
=25	=25	=25	=25
16A	8e-	8c	8BB-
16g	.	.	.
16f	8r	8r	8r
16g	.	.	.
16e-	8e- 8a	8c	8BB-
16cc	.	.	.
16b-	8r	8r	8r
16cc	.	.	.
16a	8e- 8a	8c	8BB-
16ee-	.	.	.
16dd	8r	8r	8r
16ee-	.	.	.
16a	8a 8e-	8c	8BB-
16gg	.	.	.
16ff	8r	8r	8r
16ee-	.	.	.
=26	=26	=26	=26
8dd	16b-	8B-	4BB-
.	16a	.	.
8r	16b-	8r	.
.	16dd	.	.
8dd	16f	8B-	4r
.	16g	.	.
8ee-	16e-	8c	.
.	16f	.	.
8ff	16d	8d	4BB-
.	16b-	.	.
8r	16a	8r	.
.	16b-	.	.
8dd	16f	8B-	4r
.	16g	.	.
8ee-	16e-	8c	.
.	16f	.	.
=27	=27	=27	=27
2ff	16d	1d	8BB-
.	16dd	.	.
.	16cc	.	8B-
.	16dd	.	.
.	16ee-	.	8B-
.	16dd	.	.
.	16cc	.	8B-
.	16dd	.	.
2ff#	16d	.	8AA
.	16cc	.	.
.	16b	.	8A
.	16cc	.	.
.	16dd	.	8A
.	16cc	.	.
.	16b	.	8A
.	16cc	.	.
=28	=28	=28	=28
4gg	16b-	2d	8GG
.	16a	.	.
.	16b-	.	8G
.	16dd	.	.
8.gg	16b-	.	8G
.	16a	.	.
.	16b-	.	8G
16gg	16gg	.	.
4aa	16ff#	4f#	8DD
.	16gg	.	.
.	16aa	.	8D
.	16ff#	.	.
8.aa	16dd	16f#	8D
.	16ee-	16g	.
.	16dd	16f#	8D
16aa	16cc	16a	.
=29	=29	=29	=29
8bb- 8dd	16b-	16b-	8G
.	16bb-	16dd	.
8r	16aa	16cc	8r
.	16gg	16b-	.
8dd 8ddd	16ff#	16a	8D
.	16aa	16cc	.
8r	16gg	16b-	8r
.	16ff#	16a	.
8bb- 8dd	16gg	16b-	8G
.	16bb-	16dd	.
8r	16aa	16cc	8r
.	16gg	16b-	.
8ddd 8dd	16ff#	16a	8D
.	16aa	16cc	.
8r	16gg	16b-	8r
.	16ff#	16a	.
=30	=30	=30	=30
8bb- 8dd	16gg	16b-	8GG
.	16bb-	16dd	.
8dd 8bb-	16aa	16cc	8G
.	16gg	16b-	.
8ddd 8dd	16ff#	16a	8DD
.	16aa	16cc	.
8dd 8ddd	16gg	16b-	8D
.	16ff#	16a	.
8bb- 8dd	16gg	16b-	8GG
.	16bb-	16dd	.
8dd 8bb-	16aa	16cc	8G
.	16gg	16b-	.
8ddd 8dd	16ff#	16a	8DD
.	16aa	16cc	.
8dd 8ddd	16gg	16b-	8D
.	16ff#	16a	.
=31	=31	=31	=31
16bb-	16gg	4g	8GG
16ddd	16bb-	.	.
16ccc	16aa	.	8G
16bb-	16gg	.	.
16aa	16ff#	4cc	8AA
16ccc	16aa	.	.
16bb-	16gg	.	8A
16aa	16ff#	.	.
16gg	8gg	4dd	8BB-
16bb-	.	.	.
16aa	4dd	.	8B-
16gg	.	.	.
16ff	.	4g	8BB
16aa	.	.	.
16gg	8dd	.	8B
16ff	.	.	.
=32	=32	=32	=32
4ee	16cc	8g	8C
.	16ee	.	.
.	16gg	16e	8c
.	16ff	16f	.
4ccc	16ee	16g	8c
.	16gg	16e	.
.	16ff	16f	8c
.	16ee	16g	.
4bb	16dd	2a-	8c
.	16ee	.	.
.	16ff	.	8c
.	16dd	.	.
4fff	16b	.	8c
.	16cc	.	.
.	16dd	.	8c
.	16b	.	.
=33	=33	=33	=33
4eee	16cc	8g	8C
.	16ee	.	.
.	16gg	16e	8c
.	16ff	16f	.
4ccc	16ee	16g	8c
.	16gg	16e	.
.	16ff	16f	8c
.	16ee	16g	.
4bb	16dd	2a-	8c
.	16ee	.	.
.	16ff	.	8c
.	16dd	.	.
4fff	16b	.	8c
.	16cc	.	.
.	16dd	.	8c
.	16b	.	.
=34	=34	=34	=34
4eee	16cc	8g	8C
.	16ee	.	.
.	16gg	16e	8c
.	16ff	16f	.
4ccc	16ee	16g	8c
.	16gg	16e	.
.	16ff	16f	8c
.	16ee	16g	.
4aa-	16ff	2a-	8c
.	16ee	.	.
.	16ff	.	8c
.	16ee	.	.
4b	8ff	.	8c
.	8f	.	8c
=35	=35	=35	=35
8cc	8e	4g	4c
16cc	16c	.	.
16b	16B	.	.
16cc	16c	4.r	4.r
16b	16B	.	.
16cc	16c	.	.
16b	16B	.	.
8cc	8c	.	.
16c	16c	16c	16C
16B	16B	16B	16BB
16c	16c	16c	16C
16B	16B	16B	16BB
16c	16c	16c	16C
16B	16B	16B	16BB
=36	=36	=36	=36
4c	4c	4c	4C
8r	2.r	8r	2.r
8ccc	.	8cc	.
8bb	.	8b	.
8ccc	.	8cc	.
8bb-	.	8b-	.
8gg	.	8g	.
=37	=37	=37	=37
[1aa	[1cc	[1f	2.r
.	.	.	4e
=38	=38	=38	=38
1aa_	1cc_	1f_	4.f
.	.	.	8B
.	.	.	8c
.	.	.	8G#
.	.	.	8A
.	.	.	8E
=39	=39	=39	=39
1aa]	1cc_	1f]	4.F
.	.	.	8C
.	.	.	8BB-
.	.	.	8AA
.	.	.	8GG
.	.	.	8FF
=40	=40	=40	=40
[1bb-	1cc_	[1e	4EE
.	.	.	2r
.	.	.	4f#
=41	=41	=41	=41
1bb-_	1cc_	1e_	4.g
.	.	.	8f#
.	.	.	8g
.	.	.	8f#
.	.	.	8g
.	.	.	8f#
=42	=42	=42	=42
1bb-_	1cc_	1e_	4.g
.	.	.	8d#
.	.	.	8e
.	.	.	8B
.	.	.	8c
.	.	.	8F#
=43	=43	=43	=43
1bb-]	1cc]	1e]	8G
.	.	.	8E
.	.	.	8C
.	.	.	8GG
.	.	.	8FF
.	.	.	8EE
.	.	.	8DD
.	.	.	8CC
=44	=44	=44	=44
4.aa-	4.cc	8f	8FF
.	.	4A-	4F
8gg	8b-	8B-	8G
8ff	8a-	8c	8A-
8ee	8g	8d-	8B-
8ff	8a-	8c	8A-
8gg	8b-	8B-	8G
=45	=45	=45	=45
4.aa-	4.cc	4.A-	4.F
8gg	8b-	8B-	8G
8ff	8a-	8c	8A-
8ee	8g	8d-	8B-
8ff	8a-	8c	8A-
8gg	8b-	8B-	8G
=46	=46	=46	=46
8aa-	8cc	8A-	8F
4aa-	4cc	4A-	4F
8gg-	8A-	8E-	8C
8ff	8a-	8F	8D-
8ee-	8g-	8G-	8E-
8dd-	8f	8A-	8F
8ee-	8g-	8G-	8E-
=47	=47	=47	=47
8ff	8a-	8F	8D-
4ff	4a-	4F	4D-
8ee-	8cc	8C	8AA
8dd-	8f	8D-	8BB-
8cc	8e-	8E-	8C
8b-	8d-	8F	8D-
8cc	8e-	8E-	8C
=48	=48	=48	=48
8dd-	[2f	8D-	8BB-
4dd-	.	4D-	4BB-
8cc	.	8E-	8C
8b-	8f]	8F	8D-
8a	8g-	8E-	8C
8b-	8f	8F	8D-
8a	8g-	8E-	8C
=49	=49	=49	=49
2b-	4.f	1F	2D-
.	8g	.	.
2b	8a-	.	2DD-
.	8g	.	.
.	8a-	.	.
.	8f	.	.
=50	=50	=50	=50
8cc	8e	4G	16CC
.	.	.	16C
8r	8r	.	16BB
.	.	.	16C
8ee	8cc	4r	16EE
.	.	.	16C
8ff	8dd	.	16DD
.	.	.	16C
8gg	8ee	4c 4C	16CC
.	.	.	16C
8r	8r	.	16BB
.	.	.	16C
8ee	8cc	4r	16EE
.	.	.	16C
8ff	8dd	.	16DD
.	.	.	16C
=51	=51	=51	=51
8gg	8ee	4c 4C	16CC
.	.	.	16C
8r	8r	.	16BB
.	.	.	16C
8gg	8ee	4r	16EE
.	.	.	16C
8aa	8ff	.	16DD
.	.	.	16C
16bb-	16gg	2e	16CC
16aa	16ff	.	16C
16gg	16ee	.	16CC
16ff	16dd	.	16C
16ee	16cc	.	16CC
16dd	16b-	.	16C
16cc	16a	.	16CC
16b-	16g	.	16C
=52	=52	=52	=52
8a	8f	16f	4FF
.	.	16f	.
8r	8r	16e	.
.	.	16f	.
8aa	8ff	16c	4r
.	.	16f	.
8bb-	8gg	16B-	.
.	.	16f	.
8ccc	8aa	16A	4FF
.	.	16f	.
8r	8r	16e	.
.	.	16f	.
8aa	8ff	16c	4r
.	.	16f	.
8bb-	8gg	16B-	.
.	.	16f	.
=53	=53	=53	=53
8ccc	8aa	16A	4FF
.	.	16f	.
8r	8r	16e	.
.	.	16f	.
8aa	8ff	16c	4r
.	.	16f	.
8bb-	8gg	16B-	.
.	.	16f	.
8ccc	8aa	8A	4FF
8fff	8cc	8a	.
8fff	8cc	8a	4r
8fff	8cc	8a	.
=54	=54	=54	=54
16eee	16b-	16g	1r
16fff	16cc	16a	.
16eee	16b-	16g	.
16fff	16cc	16a	.
16ddd	16a	16f	.
16eee	16b-	16g	.
16ddd	16a	16f	.
16eee	16b-	16g	.
16ccc	16g	16e	.
16ddd	16a	16f	.
16ccc	16g	16e	.
16ddd	16a	16f	.
16bb-	16f	16d	.
16ccc	16g	16e	.
16bb-	16f	16d	.
16ccc	16g	16e	.
=55	=55	=55	=55
16aa	16e	16c	2r
16bb-	16f	16d	.
16aa	16e	16c	.
16bb-	16f	16d	.
16gg	16d	16B-	.
16aa	16e	16c	.
16gg	16d	16B-	.
16aa	16e	16c	.
4ff	8c	8A	8AA
.	8f	8c	8AA
4eee-	8f	8c	8AA
.	8f	8c	8AA
=56	=56	=56	=56
2ddd	2f	4d	8BB-
.	.	.	8BB-
.	.	2B-	8BB-
.	.	.	8BB-
4eee	4g	.	8BB-
.	.	.	8BB-
4fff	4g#	4B	8BB
.	.	.	8BB
=57	=57	=57	=57
16fff	8a	[1c	4C
16ccc	.	.	.
16eee	8g#	.	.
16ccc	.	.	.
16fff	8a	.	2.r
16ccc	.	.	.
16eee	8g#	.	.
16ccc	.	.	.
16fff	8a	.	.
16ccc	.	.	.
16eee	8g#	.	.
16ccc	.	.	.
16fff	8a	.	.
16ccc	.	.	.
16eee	8g#	.	.
16ccc	.	.	.
=58	=58	=58	=58
8fff	4a	1c_	16CC
.	.	.	16FF
8r	.	.	16EE
.	.	.	16FF
8ccc	2a 2f	.	16CC
.	.	.	16AA
8r	.	.	16GG
.	.	.	16AA
8aa	.	.	16CC
.	.	.	16C
8r	.	.	16BB
.	.	.	16C
8ff	4ff	.	16CC
.	.	.	16F
8r	.	.	16E
.	.	.	16F
=59	=59	=59	=59
1gg	1ee	2c]	4CC
.	.	.	4r
.	.	2B-	2C
=60	=60	=60	=60
8ff	8ff	4A	4F
8ccc	8aa	.	.
8ccc	8aa	4.r	4.r
8ccc	8aa	.	.
8ccc	8aa	.	.
8r	8r	8cc	8a
8aa	8ff	8r	8r
8r	8r	8a	8f
=61	=61	=61	=61
8ddd	8bb-	8r	8r
8r	8r	8dd	8b-
8bb-	8gg	8r	8r
8r	8r	8b-	8g
8gg	8ee	8r	8r
8r	8r	8g	8e
8ccc	8gg	8r	8r
8r	8r	8e	8c
=62	=62	=62	=62
4aa	8ff	8f	4f
.	8cc	8a	.
4.r	8cc	8a	2.r
.	8cc	8a	.
.	8cc	8a	.
8fff	8r	8r	.
8r	8a	8f	.
8eee	8r	8r	.
=63	=63	=63	=63
8r	8dd	8b-	1r
8ddd	8r	8r	.
8r	8b-	8g	.
8ddd-	8r	8r	.
8r	8g	8e	.
8ccc	8r	8r	.
8r	8e	8c	.
8bb-	8r	8r	.
=64	=64	=64	=64
8aa	4f	4f	2r
8ccc	.	.	.
8ccc	4.r	4.r	.
8ccc	.	.	.
8ccc	.	.	8r
8ee	8b-	8g	8c
8ee	8b-	8g	8c
8ee	8b-	8g	8c
=65	=65	=65	=65
8ff	4a	4a	4F
8ccc	.	.	.
8ccc	4.r	4.r	4.r
8ccc	.	.	.
8ccc	.	.	.
8ee	8b-	8g	8c
8ee	8b-	8g	8c
8ee	8b-	8g	8c
=66	=66	=66	=66
16ff	16a 16f	16f	16F
16ee	16f 16a	16c	16F
16ff	16f 16a	16c	16F
16aa	16f 16a	16c	16F
16cc	16a 16f	16c	16F
16aa	16a 16f	16c	16F
16gg	16a 16f	16c	16F
16ff	16f 16a	16c	16F
16ee	16b- 16e	16c	16F
16ff#	16b- 16e	16c	16F
16gg	16b- 16e	16c	16F
16ff#	16b- 16e	16c	16F
16gg	16b- 16e	16c	16F
16bb-	16e 16b-	16c	16F
16aa	16e 16b-	16c	16F
16gg	16b- 16e	16c	16F
=67	=67	=67	=67
16ff	16a 16f	16c	16FF
16ee	16a 16f	16c	16FF
16ff	16f 16a	16c	16FF
16aa	16a 16f	16c	16FF
16cc	16a 16f	16c	16FF
16aa	16f 16a	16c	16FF
16gg	16f 16a	16c	16FF
16ff	16f 16a	16c	16FF
16ee	16b- 16e	16c	16FF
16ff#	16b- 16e	16c	16FF
16gg	16b- 16e	16c	16FF
16ff#	16e 16b-	16c	16FF
16gg	16e 16b-	16c	16FF
16bb-	16b- 16e	16c	16FF
16aa	16b- 16e	16c	16FF
16gg	16b- 16e	16c	16FF
=68	=68	=68	=68
4ff	4a 4f	4c	4FF
4cc 4aa	4a 4f	4c	4FF
4a 4ff	4f 4a	4c	4FF
4r	4r	4r	4r
=69	=69	=69	=69
2.r	[1A	[1F	[1DD
4c#	.	.	.
=70	=70	=70	=70
4.d	1A_	1F_	1DD_
8e	.	.	.
8f	.	.	.
8e	.	.	.
8f	.	.	.
8g#	.	.	.
=71	=71	=71	=71
4.a	1A_	1F_	1DD_
8cc#	.	.	.
8dd	.	.	.
8cc#	.	.	.
8dd	.	.	.
8ff	.	.	.
=72	=72	=72	=72
4.gg#	1A]	1F]	2.DD]
8aa	.	.	.
8gg	.	.	.
8ff	.	.	.
8ee	.	.	4F
8dd	.	.	.
=73	=73	=73	=73
4cc#	4g	4E	4E
4r	4r	4r	4r
4dd	4f	4F	4D
4r	4r	4r	4r
=74	=74	=74	=74
4ee	4e	4G	4C#
2.r	2.r	2.r	2.r
=75	=75	=75	=75
2.r	[1A	[1E-	[1FF#
4B	.	.	.
=76	=76	=76	=76
4.c	1A_	1E-_	1FF#_
8B	.	.	.
8c	.	.	.
8e-	.	.	.
8f#	.	.	.
8a	.	.	.
=77	=77	=77	=77
4.cc	1A_	1E-_	1FF#_
8b	.	.	.
8cc	.	.	.
8ee-	.	.	.
8ff#	.	.	.
8aa	.	.	.
=78	=78	=78	=78
4.ccc	1A_	1E-]	1FF#_
8bb-	.	.	.
8aa	.	.	.
8gg	.	.	.
8ff#	.	.	.
8aa	.	.	.
=79	=79	=79	=79
4.cc	1A]	1D	1FF#]
8b	.	.	.
8cc	.	.	.
8ee-	.	.	.
8a	.	.	.
8cc	.	.	.
=80	=80	=80	=80
8b-	8B-	4D	16GG
.	.	.	16G
8r	8r	.	16F#
.	.	.	16G
8gg	8b-	4r	16BB-
.	.	.	16G
8aa	8cc	.	16AA
.	.	.	16G
8bb-	8dd	4G	16GG
.	.	.	16G
8r	8r	.	16F#
.	.	.	16G
8gg	8b-	8d	16BB-
.	.	.	16G
8aa	8cc	8c	16AA
.	.	.	16G
=81	=81	=81	=81
16bb-	1dd	1B-	1GG
16ccc	.	.	.
16ddd	.	.	.
16ccc	.	.	.
16bb-	.	.	.
16aa	.	.	.
16gg	.	.	.
16ff#	.	.	.
16gg	.	.	.
16ff	.	.	.
16ee-	.	.	.
16dd	.	.	.
16cc	.	.	.
16b-	.	.	.
16a	.	.	.
16g	.	.	.
=82	=82	=82	=82
8f#	8a 8d	16d	4D
.	.	16dd	.
8r	8r	16cc#	.
.	.	16dd	.
8aa	8ff#	16f#	4r
.	.	16dd	.
8bb-	8gg	16e	.
.	.	16dd	.
8ccc	8aa	16d	4FF#
.	.	16dd	.
8r	8r	16cc#	.
.	.	16dd	.
8aa	8f#	16f#	4r
.	.	16dd	.
8bb-	8g	16e	.
.	.	16dd	.
=83	=83	=83	=83
16ccc	1a	1d	1F#
16ddd	.	.	.
16eee-	.	.	.
16ddd	.	.	.
16ccc	.	.	.
16bb-	.	.	.
16aa	.	.	.
16gg	.	.	.
16ff#	.	.	.
16aa	.	.	.
16a	.	.	.
16b-	.	.	.
16cc	.	.	.
16ee-	.	.	.
16dd	.	.	.
16cc	.	.	.
=84	=84	=84	=84
8b-	16b-	8d	4G
.	16g	.	.
8r	16f#	8r	.
.	16g	.	.
16bb-	16B-	16d	4r
16aa	16c	16e-	.
16bb-	16B-	16d	.
16ccc	16A	16c	.
8ddd	16G	8B-	4G
.	16b-	.	.
8r	16a	8r	.
.	16b-	.	.
16bb-	16B-	16d	4r
16aa	16c	16e-	.
16bb-	16B-	16d	.
16ccc	16A	16c	.
=85	=85	=85	=85
8ddd	4G	8B-	4G
16ddd	.	8r	.
16eee-	.	.	.
8fff	2A- 2d	2f 2A-	2BB-
16fff	.	.	.
16ggg	.	.	.
4aaa-	.	.	.
4A- 4d	4A- 4f	4f	4BB-
=86	=86	=86	=86
16G 16e-	8e- 8G	8g	4EE-
16e-	.	.	.
16d	8r	8r	.
16e-	.	.	.
16B-	8g	8e-	4r
16e-	.	.	.
16A-	8a-	8f	.
16e-	.	.	.
16G	8b-	8g	4EE-
16e-	.	.	.
16d	8r	8r	.
16e-	.	.	.
16B-	8g	8e-	4r
16e-	.	.	.
16A-	8a-	8f	.
16e-	.	.	.
=87	=87	=87	=87
16G	2.b-	1g	1EE
16d-	.	.	.
16c	.	.	.
16d-	.	.	.
16c	.	.	.
16d-	.	.	.
16c	.	.	.
16d-	.	.	.
16G	.	.	.
16c	.	.	.
16B	.	.	.
16c	.	.	.
16G	8cc	.	.
16B-	.	.	.
16A	8dd-	.	.
16B-	.	.	.
=88	=88	=88	=88
16A-	8cc	8a-	4FF
16f	.	.	.
16e	8r	8r	.
16f	.	.	.
16c	8a-	8f	4r
16f	.	.	.
16B-	8b-	8g	.
16f	.	.	.
16A-	8cc	8a-	4FF
16f	.	.	.
16e	8r	8r	.
16f	.	.	.
16c	8a-	8f	4r
16f	.	.	.
16B-	8b-	8g	.
16f	.	.	.
=89	=89	=89	=89
16A	2.cc	1a	1FF#
16e-	.	.	.
16d	.	.	.
16e-	.	.	.
16d	.	.	.
16e-	.	.	.
16d	.	.	.
16e-	.	.	.
16A	.	.	.
16d	.	.	.
16c#	.	.	.
16d	.	.	.
16A	8dd	.	.
16c	.	.	.
16B	8ee-	.	.
16c	.	.	.
=90	=90	=90	=90
16B-	4dd	4b-	8GG
16g	.	.	.
16f#	.	.	8G
16g	.	.	.
16d	2dd	2b-	8G
16b-	.	.	.
16a	.	.	8G
16b-	.	.	.
16g	.	.	8G
16dd	.	.	.
16cc#	.	.	8G
16dd	.	.	.
16b-	4dd	4b-	8G
16gg	.	.	.
16ff#	.	.	8G
16gg	.	.	.
=91	=91	=91	=91
8ff#	16cc	16a	8AA
.	16ee-	16cc	.
8r	16dd	16b-	8A
.	16ee-	16cc	.
8aa	16cc	8a	8A
.	16b-	.	.
8r	16a	8f#	8A
.	16g	.	.
8ccc	16f#	4d	8A
.	16g	.	.
8r	16a	.	8A
.	16b-	.	.
8ff#	16cc	4d	8A
.	16ee-	.	.
8r	16dd	.	8A
.	16cc	.	.
=92	=92	=92	=92
8gg	8b-	4d	8BB-
8r	16dd	.	8B-
.	16cc#	.	.
8bb-	16dd	2g	8B-
.	16cc#	.	.
8r	16dd	.	8B-
.	16cc#	.	.
8ddd	8dd	.	8B-
8r	16gg	.	8B-
.	16ff#	.	.
8ddd	16gg	4dd	8B-
.	16ff#	.	.
8r	16gg	.	8B-
.	16ff#	.	.
=93	=93	=93	=93
4.ddd	4gg	4ee-	16E-
.	.	.	16e-
.	.	.	16d
.	.	.	16e-
.	4gg	4r	16d
.	.	.	16e-
16eee-	.	.	16d
16ddd	.	.	16e-
4ccc	4.gg	16A	4A
.	.	16a	.
.	.	16g#	.
.	.	16a	.
4ccc	.	16g#	4r
.	.	16a	.
.	16aa	16g#	.
.	16gg	16a	.
=94	=94	=94	=94
4.ccc	4ff#	4d	16D
.	.	.	16d
.	.	.	16c#
.	.	.	16d
.	4ff#	4r	16c#
.	.	.	16d
16ddd	.	.	16c#
16ccc	.	.	16d
4bb-	4gg	16G	4G
.	.	16g	.
.	.	16f#	.
.	.	16g	.
4bb-	4dd	16f#	4r
.	.	16g	.
.	.	16f#	.
.	.	16g	.
=95	=95	=95	=95
4aa	4ee-	4e-	4c
4r	4r	4r	4r
4ff# 4a	4cc	4d	4d
4r	4r	4r	4r
=96	=96	=96	=96
8gg	8b-	4d	4g
8ddd	8bb-	.	.
8ddd	8bb-	4.r	4.r
8ddd	8bb-	.	.
8ddd	8bb-	.	.
8r	8r	8dd	8b-
8bb-	8gg	8r	8r
8r	8r	8b-	8g
=97	=97	=97	=97
8eee-	8ccc	8r	8r
8r	8r	8ee-	8cc
8ccc	8aa	8r	8r
8r	8r	8cc	8a
8aa	8ff#	8r	8r
8r	8r	8a	8f#
8ddd	8ff#	8r	8r
8r	8r	8a	8d
=98	=98	=98	=98
4bb-	8gg	8b-	4g
.	8dd	8b-	.
4.r	8dd	8b-	2.r
.	8dd	8b-	.
.	8dd	8b-	.
8gg	8r	8r	.
8r	8cc	8a	.
8ff	8r	8r	.
=99	=99	=99	=99
8r	8B-	8G	1r
8ee-	8b-	8g	.
8ee-	8b-	8g	.
8ee-	8b-	8g	.
8r	8b-	8g	.
8ee-	8r	8r	.
8r	8a	8f	.
8dd	8r	8r	.
=100	=100	=100	=100
8r	8G	8E-	1r
8cc	8g	8e-	.
8cc	8g	8e-	.
8cc	8g	8e-	.
8r	8g	8e-	.
8cc	8r	8r	.
8r	8f	8d	.
8b	8r	8r	.
=101	=101	=101	=101
8r	8g	8e-	2r
8cc	8r	8r	.
8r	8f	8d	.
8b	8r	8r	.
8r	8g	8e-	4g
8cc	8r	8r	.
8r	8f	8d	4a-
8b	8r	8r	.
=102	=102	=102	=102
8r	8g	8e-	4g
8cc	8r	8r	.
8r	8a-	8f	4d
8b	8r	8r	.
8r	8g	8e-	4e-
8cc	8r	8r	.
8r	8g	8e	4e
8b-	8r	8r	.
=103	=103	=103	=103
4a	8f	8f	4f
.	8f	8A	.
4r	8f	8A	4.r
.	8f	8A	.
4cc	8f	8A	.
.	8r	8r	8F
4dd-	8e	8B-	8r
.	8r	8r	8F
=104	=104	=104	=104
4cc	8r	8r	4FF
.	8f	8A	.
4r	8f	8A	4.r
.	8f	8A	.
4c	8f	8A	.
.	8r	8r	8F
4d-	8e	8B-	8r
.	8r	8r	8F
=105	=105	=105	=105
4c	8r	8r	4FF
.	8e-	8c	.
4r	8e-	8c	4.r
.	8e-	8c	.
4A	8e-	8c	.
.	8r	8r	8F
4B	8d	8B	8r
.	8r	8r	8F
=106	=106	=106	=106
4c	8r	8r	4FF
.	8e-	8c	.
4r	8e-	8c	4.r
.	8e-	8B-	.
4c	8e-	8A	.
.	8r	8r	8F
4d	8f	8B	8r
.	8r	8r	8F
=107	=107	=107	=107
4e-	8r	8r	8FF
.	8e-	8c	8r
2.r	8r	8r	8GG
.	8e-	8c	8r
.	8r	8r	8AA-
.	8e-	8c	8r
.	8r	8r	8AA
.	8e-	8c	8r
=108	=108	=108	=108
2.r	[1d	[1F	[1BB-
4e	.	.	.
=109	=109	=109	=109
4.f	1d_	1F_	1BB-_
8a	.	.	.
8b-	.	.	.
8a	.	.	.
8b-	.	.	.
8dd	.	.	.
=110	=110	=110	=110
4.ff	1d_	1F_	1BB-_
8a	.	.	.
8b-	.	.	.
8dd	.	.	.
8ff	.	.	.
8aa	.	.	.
=111	=111	=111	=111
4.bb-	1d]	1F]	1BB-]
8aa	.	.	.
8gg	.	.	.
8ff	.	.	.
8ee-	.	.	.
8dd	.	.	.
=112	=112	=112	=112
4cc	4g	4c	4E-
4r	4r	4r	4r
4f 4dd	4b 4d	4f 4G	4GG 4D
4r	4r	4r	4r
=113	=113	=113	=113
4ee- 4e- 4G	4cc 4e- 4G	4e- 4G	4CC 4C
2.r	2.r	2.r	2.r
=114	=114	=114	=114
2.r	[1e-	[1A	[1FF
4B	.	.	.
=115	=115	=115	=115
4.c	1e-_	1A_	1FF_
8d	.	.	.
8e-	.	.	.
8f	.	.	.
8a	.	.	.
8cc	.	.	.
=116	=116	=116	=116
4.ee-	1e-_	1A_	1FF_
8b	.	.	.
8cc	.	.	.
8dd	.	.	.
8ee-	.	.	.
8ff#	.	.	.
=117	=117	=117	=117
4.gg	1e-]	1A]	1FF]
8ff	.	.	.
8ee-	.	.	.
8dd	.	.	.
8ee-	.	.	.
8cc	.	.	.
=118	=118	=118	=118
4b- 4d	4d	4B-	4GG
4r	4r	4r	4r
4f 4cc 4A	4a 4e-	4c 4e-	4FF
4r	4r	4r	4r
=119	=119	=119	=119
4dd 4f 4B-	4b- 4d	4d 4B-	4BB-
2.r	2.r	2.r	2.r
=120	=120	=120	=120
2.ff	[1b-	4.r	2.d
.	.	8e	.
.	.	8f	.
.	.	8b-	.
4ee	.	8g	4c#
.	.	8b-	.
=121	=121	=121	=121
2.ff	1b-_	4.f	2.d
.	.	8e	.
.	.	8f	.
.	.	8b-	.
4ee	.	8g	4c#
.	.	8b-	.
=122	=122	=122	=122
2.ff	1b-]	4.f	2.d
.	.	8e	.
.	.	8f	.
.	.	8b-	.
4ff#	.	8a-	4c
.	.	8b-	.
=123	=123	=123	=123
4.gg	1dd	[1g	1B
8ff#	.	.	.
8gg	.	.	.
8aa-	.	.	.
8dd	.	.	.
8ff	.	.	.
=124	=124	=124	=124
[1ee-	4.cc	1g]	1c
.	8b	.	.
.	8cc	.	.
.	8ee-	.	.
.	8g	.	.
.	8b-	.	.
=125	=125	=125	=125
2.ee-]	[1a-	4.e-	2.C
.	.	8d	.
.	.	8e-	.
.	.	8a-	.
4dd	.	8f	4BB
.	.	8a-	.
=126	=126	=126	=126
2.ee-	1a-_	4.e-	2.C
.	.	8d	.
.	.	8e-	.
.	.	8a-	.
4dd	.	8f	4BB
.	.	8a-	.
=127	=127	=127	=127
1ee-	4.a-]	2e-	2C
.	16e-	.	.
.	16f	.	.
.	8g-	2d-	2BB-
.	8f	.	.
.	8g-	.	.
.	8b-	.	.
=128	=128	=128	=128
4.ee-	[1f	2.c	2.AA
8dd	.	.	.
8ee-	.	.	.
8gg-	.	.	.
8dd	.	4B	4GG#
8ff	.	.	.
=129	=129	=129	=129
4.ee-	1f_	2.c	2.AA
8dd	.	.	.
8ee-	.	.	.
8gg-	.	.	.
8dd	.	4B	4GG#
8ff	.	.	.
=130	=130	=130	=130
4.ee-	1f_	1c	1AA
8dd	.	.	.
8ee-	.	.	.
8gg-	.	.	.
8cc	.	.	.
8ee-	.	.	.
=131	=131	=131	=131
4.dd-	4f]	4B-	4BB-
.	4r	4r	2.r
8cc	.	.	.
8b-	4.f	4.d-	.
8a	.	.	.
8b-	.	.	.
8cc	8e-	8c	.
=132	=132	=132	=132
4.dd-	8d-	8B-	1r
.	8c	8A	.
.	8d-	8B-	.
8cc	8e-	8c	.
8b-	4.f	4.d-	.
8a	.	.	.
8b-	.	.	.
8a-	8e-	8c	.
=133	=133	=133	=133
4.g-	8d-	8B-	2r
.	8c	8A	.
.	8d-	8B-	.
8f	8c	8A-	.
8e-	4B-	8G-	4.GG-
8d	.	4B-	.
8e-	4B-	.	.
8f	.	8A-	8FF
=134	=134	=134	=134
4.g-	4B-	8G-	8EE-
.	.	8F	8DD
.	2.r	8G-	8EE-
8f	.	8A-	8FF
8e-	.	2B-	2GG-
8d	.	.	.
8e-	.	.	.
8e	.	.	.
=135	=135	=135	=135
16f	8f 8A	8A	8FF
16cc	.	.	.
16b-	8r	8r	8F
16cc	.	.	.
16a	8c	8A	8r
16b-	.	.	.
16g	8d	8B-	8F
16a	.	.	.
16f	8e-	8c	8FF
16ee-	.	.	.
16cc	8r	8r	8F
16b-	.	.	.
16a	8e- 8a	8c	8FF
16gg	.	.	.
16ff	8r	8r	8F
16ee-	.	.	.
=136	=136	=136	=136
16dd	8b- 8d	8B-	8FF
16ff	.	.	.
16ee	8r	8r	8F
16ff	.	.	.
16dd	8d	8B-	8r
16ff	.	.	.
16cc	8e-	8c	8F
16ff	.	.	.
16b-	8f	8d	8FF
16ff	.	.	.
16gg	8r	8r	8F
16ff	.	.	.
16bb-	8dd	8b-	8FF
16aa	.	.	.
16gg	8r	8r	8F
16ff	.	.	.
=137	=137	=137	=137
16ee	8ee 8b-	8g	8FF
16bb-	.	.	.
16aa	8r	8r	8F
16bb-	.	.	.
16gg	8g	8e	8r
16bb-	.	.	.
16ff	8a	8f	8F
16bb-	.	.	.
16ee	8b-	8g	8FF
16ddd	.	.	.
16ccc	8r	8r	8F
16bb-	.	.	.
16aa	8ee 8b-	8g	8FF
16bb-	.	.	.
16aa	8r	8r	8F
16bb-	.	.	.
=138	=138	=138	=138
4aa	16ff 16a	4f	[1FF
.	16ff	.	.
.	16ee	.	.
.	16ff	.	.
4ccc	16ee-	4A	.
.	16ff	.	.
.	16ee-	.	.
.	16ff	.	.
4ddd-	16dd-	8B-	.
.	16ff	.	.
.	16cc	8c	.
.	16ff	.	.
4ee	16b-	8d-	.
.	16dd-	.	.
.	16cc	8d-	.
.	16b-	.	.
=139	=139	=139	=139
4ff	16a	4c	1FF_
.	16ff	.	.
.	16ee	.	.
.	16ff	.	.
4ccc	16ee-	4A	.
.	16ff	.	.
.	16ee-	.	.
.	16ff	.	.
4ddd-	16dd-	8B-	.
.	16ff	.	.
.	16cc	8c	.
.	16ff	.	.
4ee	16b-	8d-	.
.	16dd-	.	.
.	16cc	8d-	.
.	16b-	.	.
=140	=140	=140	=140
8ff	8a	4c	4FF]
16ff	16f	.	.
16ee	16e	.	.
16ff	16f	4.r	4.r
16ee	16e	.	.
16ff	16f	.	.
16ee	16e	.	.
8ff	8f	.	.
16f	16f	16F	16FF
16e	16e	16E	16EE
16f	16f	16F	16FF
16e	16e	16E	16EE
16f	16f	16F	16FF
16e	16e	16E	16EE
=141	=141	=141	=141
4f	4f	4F	4FF
8r	2.r	2.r	2.r
8ff	.	.	.
8gg	.	.	.
8aa	.	.	.
8bb-	.	.	.
8ccc	.	.	.
=142	=142	=142	=142
[1ddd	[1ff	[1b-	2.r
.	.	.	4A
=143	=143	=143	=143
1ddd_	1ff_	1b-_	4.B-
.	.	.	8d
.	.	.	8e
.	.	.	8f
.	.	.	8c#
.	.	.	8d
=144	=144	=144	=144
1ddd]	1ff_	1b-]	8A
.	.	.	8B-
.	.	.	8E
.	.	.	8F
.	.	.	8E-
.	.	.	8D
.	.	.	8C
.	.	.	8BB-
=145	=145	=145	=145
[1eee-	1ff_	4cc	[1AA
.	.	2r	.
.	.	4b	.
=146	=146	=146	=146
1eee-_	1ff_	4.cc	1AA_
.	.	8ee-	.
.	.	8b	.
.	.	8cc	.
.	.	8g#	.
.	.	8a	.
=147	=147	=147	=147
1eee-]	1ff_	8e	1AA]
.	.	8f	.
.	.	8B	.
.	.	8c	.
.	.	8B-	.
.	.	8A	.
.	.	8G	.
.	.	8F	.
=148	=148	=148	=148
[1ddd	4ff]	[1f	[1AA-
.	2r	.	.
.	4aa	.	.
=149	=149	=149	=149
1ddd_	4.bb-	1f_	1AA-_
.	8ff	.	.
.	8ee-	.	.
.	8dd	.	.
.	8cc	.	.
.	8b-	.	.
=150	=150	=150	=150
1ddd]	8a	1f]	1AA-]
.	8b-	.	.
.	8cc-	.	.
.	8b-	.	.
.	8cc-	.	.
.	8b-	.	.
.	8cc-	.	.
.	8b-	.	.
=151	=151	=151	=151
2eee-	8b-	2e-	2GG
.	8a	.	.
.	8b-	.	.
.	8cc	.	.
2eee	8dd-	8B-	2GG-
.	8cc	8A	.
.	8dd-	8B-	.
.	8b-	8d-	.
=152	=152	=152	=152
8fff	8a	16f	4FF
.	.	16f	.
8r	8r	16e	.
.	.	16f	.
8ccc	8a	16c	4r
.	.	16f	.
8ddd	8b-	16B-	.
.	.	16f	.
8eee-	8cc	16A	4FF
.	.	16f	.
8r	8r	16e	.
.	.	16f	.
8ccc	8a	16c	4r
.	.	16f	.
8ddd	8b-	16B-	.
.	.	16f	.
=153	=153	=153	=153
8eee-	8cc	16A	4FF
.	.	16f	.
8r	8r	16e	.
.	.	16f	.
8ccc	8a	16c	4r
.	.	16f	.
8ddd	8b-	16B-	.
.	.	16f	.
16eee-	2cc	2A	2FF
16ddd	.	.	.
16eee-	.	.	.
16ccc	.	.	.
16bb-	.	.	.
16aa	.	.	.
16ccc	.	.	.
16ee-	.	.	.
=154	=154	=154	=154
8dd	16dd	8B-	4BB-
.	16b-	.	.
8r	16a	8r	.
.	16b-	.	.
8dd	16f	8D	4r
.	16g	.	.
8ee-	16e-	8E-	.
.	16f	.	.
8ff	16d	8F	4BB-
.	16b-	.	.
8r	16a	8r	.
.	16b-	.	.
8dd	16f	8D	4r
.	16g	.	.
8ee-	16e-	8E-	.
.	16f	.	.
=155	=155	=155	=155
8ff	16d	8F	4BB-
.	16b-	.	.
8r	16a	8r	.
.	16b-	.	.
8dd	16f	8D	4r
.	16g	.	.
8ee-	16e-	8E-	.
.	16f	.	.
8ff	8d	8F	4BB-
8bb-	8ff	8dd	.
8bb-	8ff	8dd	4r
8bb-	8ff	8dd	.
=156	=156	=156	=156
16aa	16ee-	16cc	1r
16bb-	16ff	16dd	.
16aa	16ee-	16cc	.
16bb-	16ff	16dd	.
16gg	16dd	16b-	.
16aa	16ee-	16cc	.
16gg	16dd	16b-	.
16aa	16ee-	16cc	.
16ff	16cc	16a	.
16gg	16dd	16b-	.
16ff	16cc	16a	.
16gg	16dd	16b-	.
16ee-	16b-	16g	.
16ff	16cc	16a	.
16ee-	16b-	16g	.
16ff	16cc	16a	.
=157	=157	=157	=157
16dd	16a	16f	2r
16ee-	16b-	16g	.
16dd	16a	16f	.
16ee-	16b-	16g	.
16cc	16g	16e-	.
16dd	16a	16f	.
16cc	16g	16e-	.
16dd	16a	16f	.
4b-	8f	8d	8D
.	8b-	8f	8D
4aa-	8b-	8f	8D
.	8b-	8f	8D
=158	=158	=158	=158
2gg	2b-	4g	8E-
.	.	.	8E-
.	.	2e-	8E-
.	.	.	8E-
4aa	4cc	.	8E-
.	.	.	8E-
4bb-	4cc#	4e	8E
.	.	.	8E
=159	=159	=159	=159
16bb-	8dd	1f	4F
16ff	.	.	.
16aa	8cc#	.	.
16ff	.	.	.
16bb-	8dd	.	2.r
16ff	.	.	.
16aa	8cc#	.	.
16ff	.	.	.
16bb-	8dd	.	.
16ff	.	.	.
16aa	8cc#	.	.
16ff	.	.	.
16bb-	8dd	.	.
16ff	.	.	.
16aa	8cc	.	.
16ff	.	.	.
=160	=160	=160	=160
8bb-	1b- 1d	16F	[1FF
.	.	16B-	.
8r	.	16A	.
.	.	16B-	.
8ff	.	16F	.
.	.	16d	.
8r	.	16c#	.
.	.	16d	.
8dd	.	16B-	.
.	.	16f	.
8r	.	16e	.
.	.	16f	.
8b-	.	16d	.
.	.	16b-	.
8r	.	16a	.
.	.	16b-	.
=161	=161	=161	=161
1cc	1a	2f	4FF]
.	.	.	4r
.	.	2e-	2F
=162	=162	=162	=162
8b-	8b-	4d	4BB-
8ff	8dd	.	.
8ff	8dd	4.r	4.r
8ff	8dd	.	.
8ff	8dd	.	.
8r	8r	8f	8d
8dd	8b-	8r	8r
8r	8r	8d	8B-
=163	=163	=163	=163
8gg	8ee-	8r	8r
8r	8r	8g	8e-
8ee-	8cc	8r	8r
8r	8r	8e-	8c
8cc	8a	8r	8r
8r	8r	8c	8A
8ff	8cc	8r	8r
8r	8r	8A	8F
=164	=164	=164	=164
4dd	8b-	8B-	4B-
.	8ff	8dd	.
4.r	8ff	8dd	2.r
.	8ff	8dd	.
.	8ff	8dd	.
8bb-	8r	8r	.
8r	8dd	8b-	.
8aa	8r	8r	.
=165	=165	=165	=165
8r	8gg	8ee-	1r
8gg	8r	8r	.
8r	8ee-	8cc	.
8gg-	8r	8r	.
8r	8cc	8a	.
8ff	8r	8r	.
8r	8a	8f	.
8ee-	8r	8r	.
=166	=166	=166	=166
4dd	4b-	4b-	8r
.	.	.	8AA-
4.r	4.r	4.r	8AA-
.	.	.	8AA-
.	.	.	4AA-
8bb- 8b-	8ff	8dd	.
8bb- 8b-	8ff	8dd	4r
8bb- 8b-	8ff	8dd	.
=167	=167	=167	=167
4bb- 4b-	4gg	4ee-	8r
.	.	.	8GG
4.r	4.r	4.r	8GG
.	.	.	8GG
.	.	.	2GG-
8bb-	8e	8dd-	.
8bb-	8e	8dd-	.
8bb-	8e	8b-	.
=168	=168	=168	=168
8aa	4f	4cc	[1FF
8ff	.	.	.
8ff	4.r	4.r	.
8ff	.	.	.
8gg	.	.	.
8r	8d	8B	.
8ff	8d	8B	.
8r	8d	8B	.
=169	=169	=169	=169
8r	8e-	8c	2FF]
8ee-	8r	8r	.
8ee-	8d	8B-	.
8ee	8r	4r	.
8ff	8c	.	8r
8r	8e-	8A	8FF#
8ee-	8c	8A	8FF#
8r	8cc	8A	8FF#
=170	=170	=170	=170
8dd	8b-	8B-	8GG
8r	8r	8r	8GG
8cc	8g	8e-	8r
8r	8r	8r	8EE-
8b-	8f	8d	8r
8r	8r	8r	8FF
8a	8e-	8c	8r
8r	8r	8r	8F
=171	=171	=171	=171
8bb-	8b-	8r	8r
8r	8r	8f	8d
8aa	8a	8r	8r
8r	8r	8g-	8e-
8bb-	8b-	8r	8r
8r	8r	8f	8d
8aa	8a	8r	8r
8r	8r	8g-	8e-
=172	=172	=172	=172
8bb-	8b-	8f	8d
8bb-	8b-	8d	8BB-
8aa	8cc	8g-	8E-
8aa	8cc	8g-	8BB-
8bb-	8b-	8f	8D
8bb-	8b-	8d	8BB-
8aa	8cc	8g-	8E-
8aa	8cc	8g-	8BB-
=173	=173	=173	=173
16b-	8dd	2f	8D
16bb-	.	.	.
16b-	8d	.	8BB-
16bb-	.	.	.
16cc	8ee-	.	8AA
16ccc	.	.	.
16cc	8e-	.	8A
16ccc	.	.	.
16dd	8ff	4b-	8AA-
16ddd	.	.	.
16dd	8f	.	8A-
16ddd	.	.	.
16ee-	8gg	4b-	8GG
16eee-	.	.	.
16ee-	8g	.	8G
16eee-	.	.	.
=174	=174	=174	=174
1fff	1aa-	1b-	1DD
=175	=175	=175	=175
[1g	[1B-	2.r	[1EE-
.	.	4C	.
=176	=176	=176	=176
1g_	1B-_	4.D-	1EE-]
.	.	8C	.
.	.	8D-	.
.	.	8C	.
.	.	8D-	.
.	.	8F	.
=177	=177	=177	=177
4.g]	1B-_	1D-	1EE
8f#	.	.	.
8g	.	.	.
8f#	.	.	.
8g	.	.	.
8b-	.	.	.
=178	=178	=178	=178
1f	4.B-]	4.D	[1FF
.	8A	8C#	.
.	8B-	8D	.
.	8A	8C#	.
.	8B-	8D	.
.	8d	8F	.
=179	=179	=179	=179
4.c	[1A	[1E-	1FF_
8B	.	.	.
8c	.	.	.
8B	.	.	.
8c	.	.	.
8e-	.	.	.
=180	=180	=180	=180
4.c	1A_	1E-_	1FF_
8d	.	.	.
8e-	.	.	.
8f#	.	.	.
8g	.	.	.
8f#	.	.	.
=181	=181	=181	=181
4g	2.A]	1E-]	1FF]
4e-	.	.	.
4c	.	.	.
4A	4c	.	.
=182	=182	=182	=182
8B-	4B-	4D	4BB-
8f	.	.	.
8f	4.r	4.r	4.r
8f	.	.	.
8f	.	.	.
8a	8e-	8c	8F
8a	8e-	8c	8F
8a	8e-	8c	8F
=183	=183	=183	=183
8b-	4d	4d	4BB-
8ff	.	.	.
8ff	4.r	4.r	4.r
8ff	.	.	.
8ff	.	.	.
8a	8e-	8c	8F
8a	8e-	8c	8F
8a	8e-	8c	8F
=184	=184	=184	=184
16b-	16B- 16d	16d	16BB-
16a	16d 16B-	16F	16BB-
16b-	16d 16B-	16F	16BB-
16dd	16B- 16d	16F	16BB-
16f	16B- 16d	16F	16BB-
16dd	16B- 16d	16F	16BB-
16cc	16B- 16d	16F	16BB-
16b-	16B- 16d	16F	16BB-
16a	16e- 16A	16F	16BB-
16b	16e- 16A	16F	16BB-
16cc	16A 16e-	16F	16BB-
16b	16e- 16A	16F	16BB-
16cc	16e- 16A	16F	16BB-
16ee-	16e- 16A	16F	16BB-
16dd	16e- 16A	16F	16BB-
16cc	16A 16e-	16F	16BB-
=185	=185	=185	=185
16b-	16d 16B-	16F	16BB-
16a	16B- 16d	16F	16BB-
16b-	16d 16B-	16F	16BB-
16dd	16d 16B-	16F	16BB-
16f	16d 16B-	16F	16BB-
16dd	16B- 16d	16F	16BB-
16cc	16B- 16d	16F	16BB-
16b-	16B- 16d	16F	16BB-
16a	16e- 16A	16F	16BB-
16b	16e- 16A	16F	16BB-
16cc	16e- 16A	16F	16BB-
16b	16A 16e-	16F	16BB-
16cc	16A 16e-	16F	16BB-
16ee-	16A 16e-	16F	16BB-
16dd	16A 16e-	16F	16BB-
16cc	16A 16e-	16F	16BB-
=186	=186	=186	=186
8b-	8d 8B-	8F	8BB-
8r	8r	8r	8r
8bb-	8dd	8F	8BB-
8r	8r	8r	8r
8ddd	8ff	8D	8BB-
8r	8r	8r	8r
8bb-	8dd	8F	8BB-
8r	8r	8r	8r
=187	=187	=187	=187
4dd 4ff	4b- 4d	4B-	4BB-
4r	4r	4r	4r
4dd 4f	4b- 4d	4B- 4D	4BB-
4r	4r	4r	4r
=188	=188	=188	=188
4b- 4d 4B-	4b- 4d	4B- 4D	4BB-
2.r	2.r	2.r	2.r
==	==	==	==
*-	*-	*-	*-
!!!RWG1: This file contains only pitch and duration data.
!!!RWG2: Transposing instruments are not transposed.
!!!RWG3: Spines may have incompatible meters.
!!!RWG4: Durations of rests and tied notes may be interpreted.
!!!RWG: Key is interpreted using the Humdrum key tool.
!!!GTL: 6 Quartetti ("Erdödy")
!!!OPT: Sunrise
!!!AFT: stage1
!!!END: 1997/04/15
!!format changes:
!!content changes:
!!public access: complete
!!!KEY: 835014684
!!!EMD: Converted from MuseData to Humdrum Dec 16, 2000, by Andreas Kornstaedt using muse2kern.
